src/assets/duotone/ArchiveSlash.svg

<svg width="24" height="24" viewBox="0 0 24 24"  xmlns="http://www.w3.org/2000/svg">
<path opacity="0.4" d="M20.68 6.32031V19.9503C20.68 21.7503 19.39 22.5103 17.82 21.6403L12.94 18.9203C12.42 18.6403 11.58 18.6403 11.06 18.9203L6.18 21.6403C5.76 21.8703 5.36 21.9903 5 22.0003L20.68 6.32031Z" />
<path d="M20.1198 3.88L3.38982 20.61C3.33982 20.41 3.31982 20.19 3.31982 19.95V5.86C3.31982 3.74 5.04982 2 7.17982 2H16.8198C18.2198 2 19.4498 2.75 20.1198 3.88Z" />
<path d="M21.7699 2.22988C21.4699 1.92988 20.9799 1.92988 20.6799 2.22988L2.22988 20.6899C1.92988 20.9899 1.92988 21.4799 2.22988 21.7799C2.37988 21.9199 2.56988 21.9999 2.76988 21.9999C2.96988 21.9999 3.15988 21.9199 3.30988 21.7699L21.7699 3.30988C22.0799 3.00988 22.0799 2.52988 21.7699 2.22988Z" />
</svg>

<?xml version="1.0" encoding="UTF-8"?>
<svg width="24" height="24" viewBox="0 0 24 24" xmlns="http://www.w3.org/2000/svg">
 <path d="m20.68 6.3203v13.63c0 1.8-1.29 2.56-2.86 1.69l-4.88-2.72c-0.52-0.28-1.36-0.28-1.88 0l-4.88 2.72c-0.42 0.23-0.82 0.35-1.18 0.36l15.68-15.68z" opacity=".4"/>
 <path d="m20.12 3.88-16.73 16.73c-0.05-0.2-0.07-0.42-0.07-0.66v-14.09c0-2.12 1.73-3.86 3.86-3.86h9.64c1.4 0 2.63 0.75 3.3 1.88z"/>
 <path d="m21.77 2.2299c-0.3-0.3-0.79-0.3-1.09 0l-18.45 18.46c-0.3 0.3-0.3 0.79 0 1.09 0.15 0.14 0.34 0.22 0.54 0.22s0.39-0.08 0.54-0.23l18.46-18.46c0.31-0.3 0.31-0.78 0-1.08z"/>
</svg>
